DenisNovikLanding/build/img/svg/Sketch.svg

<svg width="97" height="87" viewBox="0 0 97 87" fill="none" xmlns="http://www.w3.org/2000/svg">
<g clip-path="url(#clip0_254_512)">
<path fill-rule="evenodd" clip-rule="evenodd" d="M19.993 31.2227L48.3868 86.7977L0.661987 31.2227H19.993Z" fill="#EA6C00"/>
<path fill-rule="evenodd" clip-rule="evenodd" d="M76.7887 31.2227L48.3949 86.7977L96.1198 31.2227H76.7887Z" fill="#EA6C00"/>
<path fill-rule="evenodd" clip-rule="evenodd" d="M19.9919 31.2227H76.7796L48.3857 86.7977L19.9919 31.2227Z" fill="#FDAD00"/>
<path fill-rule="evenodd" clip-rule="evenodd" d="M48.3857 0.423828L21.4864 3.26725L19.9919 31.2235L48.3857 0.423828Z" fill="#FDD231"/>
<path fill-rule="evenodd" clip-rule="evenodd" d="M48.3857 0.423828L75.2851 3.26725L76.7795 31.2235L48.3857 0.423828Z" fill="#FDD231"/>
<path fill-rule="evenodd" clip-rule="evenodd" d="M96.1198 31.2239L75.2943 3.26758L76.7887 31.2239H96.1198Z" fill="#FDAD00"/>
<path fill-rule="evenodd" clip-rule="evenodd" d="M0.661987 31.2239L21.4875 3.26758L19.993 31.2239H0.661987Z" fill="#FDAD00"/>
<path fill-rule="evenodd" clip-rule="evenodd" d="M48.3857 0.423828L19.9919 31.2235H76.7796L48.3857 0.423828Z" fill="#FEEEB7"/>
</g>
<defs>
<clipPath id="clip0_254_512">
<rect width="96" height="86.8992" fill="white" transform="translate(0.486816)"/>
</clipPath>
</defs>
</svg>

<svg width="97" height="87" fill="none" xmlns="http://www.w3.org/2000/svg"><g clip-path="url(#clip0_254_512)" fill-rule="evenodd" clip-rule="evenodd"><path d="M19.993 31.223l28.394 55.575L.662 31.223h19.331zm56.796 0L48.395 86.798 96.12 31.223H76.789z" fill="#EA6C00"/><path d="M19.992 31.223H76.78L48.386 86.798 19.992 31.223z" fill="#FDAD00"/><path d="M48.386.424l-26.9 2.843-1.494 27.957L48.386.424zm0 0l26.9 2.843 1.493 27.957L48.386.424z" fill="#FDD231"/><path d="M96.12 31.224L75.294 3.268l1.495 27.956h19.33zm-95.458 0L21.488 3.268l-1.495 27.956H.662z" fill="#FDAD00"/><path d="M48.386.424l-28.394 30.8H76.78L48.386.424z" fill="#FEEEB7"/></g><defs><clipPath id="clip0_254_512"><path fill="#fff" transform="translate(.487)" d="M0 0h96v86.899H0z"/></clipPath></defs></svg>
